X: 32
T: Domine non secundum peccata nostra
N: Derived from Ort2004-Domine_non_secundum_peccata_nostra.krn
C: Marbrianus de Orto
%%abc-version 2.0
%%abcx-abcm2ps-target-version 5.9.1 (29 Sep 2008)
%%abc-creator hum2abc beta
%%abcx-conversion-date 2019/02/17 07:28:38
%%abc-edited-by Jesse Rodin
%%abc-edited-by Jesse Rodin 2010/2013
%%abcx-initial-encoding-date 2013/05/06/
%%humdrum-veritas 618333082
%%humdrum-veritas-data 1845809739
%%linebreak <none>
%%barnumbers 0
L: 1/4
M: 3/1
Q: 1/2=120
%%staves [1 2 3 4]
V: 1 clef=treble
V: 2 clef=treble-8
V: 3 clef=treble-8
V: 4 clef=bass
K: F
[V:1] G8F4 | 
[V:2] G4B2c2d4 | 
[V:3] z12 | 
[V:4] z12 | 
[V:1] G4F2D2_E4 | 
[V:2] _e4d2d4c2 | 
[V:3] z12 | 
[V:4] z12 | 
[V:1] D3EF2G2F2G2- | 
[V:2] d2cBA2G2B4 | 
[V:3] z12 | 
[V:4] z12 | 
[V:1] G2F2G2B2A2B2- | 
[V:2] A4z2d4G2 | 
[V:3] z12 | 
[V:4] z12 | 
[V:1] B2G2A4G3A | 
[V:2] d2e2f4g2e2 | 
[V:3] z12 | 
[V:4] z12 | 
[V:1] B2A2c3BA2G2 | 
[V:2] d2f3ec3d_e2 | 
[V:3] z12 | 
[V:4] z12 | 
[V:1] B2A3GG4^F2 | 
[V:2] d4c2B2A4 | 
[V:3] z12 | 
[V:4] z12 | 
[V:1] G8z4 | 
[V:2] G12 | 
[V:3] z12 | 
[V:4] z12 | 
[V:1] z12 | 
[V:2] z12 | 
[V:3] G4G2G2F2G2 | 
[V:4] G,,4B,,2C,2D,2E,2 | 
[V:1] z12 | 
[V:2] z12 | 
[V:3] F2D4F4G2- | 
[V:4] F,4B,,8 | 
[V:1] z12 | 
[V:2] z12 | 
[V:3] G2F2B4A2c2- | 
[V:4] A,,4G,,2D,4C,2 | 
[V:1] z12 | 
[V:2] z4z4c3d | 
[V:3] c2B2A2G4^F2 | 
[V:4] _E,2D,3C,B,,2A,,4 | 
[V:1] z12 | 
[V:2] _e2d4B2c4 | 
[V:3] G8A4 | 
[V:4] G,,4z2G,4F,2 | 
[V:1] z12 | 
[V:2] B2A4B2c4 | 
[V:3] B2c3BAGF4 | 
[V:4] G,2F,4B,4A,2 | 
[V:1] D8_E4 | 
[V:2] f2ed2cB4A2 | 
[V:3] z12 | 
[V:4] B,4B,,4C,4 | 
[V:1] D4C2B,2C4 | 
[V:2] B4z4z4 | 
[V:3] F8A4 | 
[V:4] B,,4A,,2B,,2F,4 | 
[V:1] B,2C3A,B,2A,4 | 
[V:2] f6d6 | 
[V:3] B2A4G4^F2 | 
[V:4] B,,2F,4G,2D,4 | 
[V:1] G,4B,4C2D2 | 
[V:2] B4_e6d2 | 
[V:3] G12- | 
[V:4] _E,4E,3D,C,2B,,2 | 
[V:1] _E4D3=EF2G2- | 
[V:2] c4f4z4 | 
[V:3] G4B8 | 
[V:4] C,4B,,3C,D,2_E,2 | 
[V:1] G2A4G2c4 | 
[V:2] z4d2e2f4 | 
[V:3] c4B4A4 | 
[V:4] C,2F,2G,4F,4 | 
[V:1] z2B2A2B3A/G/A2 | 
[V:2] f6e2f4 | 
[V:3] d4c2B2c4 | 
[V:4] B,,4F,2G,2F,4 | 
[V:1] D4F3GA2B2- | 
[V:2] z4d8 | 
[V:3] B4z4z4 | 
[V:4] G,4z4z4 | 
[V:1] BAc3BAGA4 | 
[V:2] _e4d2g3=ef2 | 
[V:3] z12 | 
[V:4] z4z4D,4 | 
[V:1] G4z2c3BG2- | 
[V:2] B2G2A3Bcd_e2 | 
[V:3] G4F3GA2B2- | 
[V:4] _E,4D,2F,4E,2 | 
[V:1] G2A3G^FEF4 | 
[V:2] d2f3ec2d4 | 
[V:3] BAc3BAGA4 | 
[V:4] G,2F,4E,2D,4 | 
[V:1] G4z4z4 | 
[V:2] B3cd2c4=B2 | 
[V:3] G4G4F4 | 
[V:4] G,,4B,,2C,2D,4 | 
[V:1] E4D2C2D3E | 
[V:2] c4G2A2G4 | 
[V:3] G3AB2c4B2 | 
[V:4] C,4z4z4 | 
[V:1] F4E2D2E4 | 
[V:2] d4z2d4c2 | 
[V:3] A12- | 
[V:4] D,4C,2D,2A,,4 | 
[V:1] D12 | 
[V:2] f8g4 | 
[V:3] A4B8 | 
[V:4] D,4B,,4G,,4 | 
[V:1] z12 | 
[V:2] f4e2d2c4 | 
[V:3] A2B2c2B4A2 | 
[V:4] D,4C,2D,2E,2F,2 | 
[V:1] F3GA2B2A2B2 | 
[V:2] B4d4d4 | 
[V:3] B4z4z4 | 
[V:4] B,,4F,2G,2F,D,G,2 | 
[V:1] c3BG2F2z2D2 | 
[V:2] _e3dBcd3=ef2- | 
[V:3] z4B4A2B2 | 
[V:4] C,4_E,2D,4B,,2 | 
[V:1] A4B4A2D2 | 
[V:2] f2c2d6B2 | 
[V:3] c3BG4F2G2 | 
[V:4] F,4z4z4 | 
[V:1] F3EC2D4^C2 | 
[V:2] d4z4z4 | 
[V:3] A2B2A2B2G4 | 
[V:4] D,2B,,2F,2D,2E,4 | 
[V:1] D12- | 
[V:2] z12 | 
[V:3] A4B4A2G2 | 
[V:4] D,4G,4F,2B,2- | 
[V:1] D4A4B4 | 
[V:2] z4d8 | 
[V:3] z2G4F2G4 | 
[V:4] B,2G,2D,4z4 | 
[V:1] A2G4F2G2D2 | 
[V:2] d2B2A4c2f2 | 
[V:3] F2G2D4z4 | 
[V:4] z4z2D,2C,2B,,2 | 
[V:1] G2F2G2A2G2D2- | 
[V:2] e2d2B2c4A2 | 
[V:3] z4z4G2F2 | 
[V:4] C,2D,2G,,2F,,2C,2D,2 | 
[V:1] D2E3FG4A2- | 
[V:2] B2c3d_e2d2f2- | 
[V:3] G2A2G2c2B2c2 | 
[V:4] B,,2A,,2C,4G,2F,2 | 
[V:1] A2G4^F2G4 ||  
[V:2] f2c2d4d4 ||  
[V:3] d2G2A4G4 ||  
[V:4] D,2E,2D,4G,,4 ||  
[V:1] [M:2/1]z8 | 
[V:2] [M:2/1]z8 | 
[V:3] [M:2/1]z8 | 
[V:4] [M:2/1]B,,6A,,2 | 
[V:1] z8 | 
[V:2] z8 | 
[V:3] z8 | 
[V:4] B,,4C,4 | 
[V:1] z8 | 
[V:2] F6E2 | 
[V:3] z8 | 
[V:4] D,6C,2 | 
[V:1] z8 | 
[V:2] F4G4 | 
[V:3] z8 | 
[V:4] D,2F,2E,4 | 
[V:1] z8 | 
[V:2] A2B2c4 | 
[V:3] z8 | 
[V:4] D,4A,,4 | 
[V:1] z8 | 
[V:2] d6c2 | 
[V:3] z8 | 
[V:4] B,,3C,D,E,F,2- | 
[V:1] z8 | 
[V:2] d2f4e2- | 
[V:3] z8 | 
[V:4] F,2D,4G,2- | 
[V:1] z8 | 
[V:2] e2d4^c2 | 
[V:3] z8 | 
[V:4] G,F,D,2E,4 | 
[V:1] z8 | 
[V:2] d8 | 
[V:3] z8 | 
[V:4] D,8 | 
[V:1] z8 | 
[V:2] f6e2 | 
[V:3] z8 | 
[V:4] z4D,4 | 
[V:1] z8 | 
[V:2] d4c4 | 
[V:3] z8 | 
[V:4] F,6E,D, | 
[V:1] z8 | 
[V:2] _e8 | 
[V:3] z8 | 
[V:4] C,8 | 
[V:1] z8 | 
[V:2] d6cB | 
[V:3] z8 | 
[V:4] G,8 | 
[V:1] z8 | 
[V:2] A4G4 | 
[V:3] z8 | 
[V:4] F,4B,4- | 
[V:1] z8 | 
[V:2] c6B2 | 
[V:3] z8 | 
[V:4] B,4A,4 | 
[V:1] z8 | 
[V:2] G4B4 | 
[V:3] z8 | 
[V:4] B,4G,4- | 
[V:1] z8 | 
[V:2] A8 | 
[V:3] z8 | 
[V:4] G,4^F,4 | 
[V:1] z8 | 
[V:2] G8 | 
[V:3] z8 | 
[V:4] G,8 | 
[V:1] D8 | 
[V:2] z8 | 
[V:3] G4F4 | 
[V:4] z8 | 
[V:1] D4D4 | 
[V:2] z8 | 
[V:3] B4B4 | 
[V:4] z8 | 
[V:1] _E6DC | 
[V:2] z8 | 
[V:3] c6Bc | 
[V:4] z8 | 
[V:1] B,8 | 
[V:2] z8 | 
[V:3] d8 | 
[V:4] z8 | 
[V:1] F6E2 | 
[V:2] z8 | 
[V:3] d6c2 | 
[V:4] z8 | 
[V:1] D4F4- | 
[V:2] z8 | 
[V:3] B4A4 | 
[V:4] z8 | 
[V:1] F2E2D4 | 
[V:2] z8 | 
[V:3] B8 | 
[V:4] z8 | 
[V:1] C3DE2D2- | 
[V:2] z8 | 
[V:3] A4G2B2- | 
[V:4] z8 | 
[V:1] D2CB,A,4 | 
[V:2] z8 | 
[V:3] B2G4^F2 | 
[V:4] z8 | 
[V:1] G,8 | 
[V:2] z8 | 
[V:3] G8 | 
[V:4] z4G,4 | 
[V:1] z4F4 | 
[V:2] z4d4 | 
[V:3] D8 | 
[V:4] A,4A,4 | 
[V:1] G4B4 | 
[V:2] d6e2 | 
[V:3] z8 | 
[V:4] B,4G,4 | 
[V:1] A4B4 | 
[V:2] f4d4- | 
[V:3] F4G4 | 
[V:4] z8 | 
[V:1] G4z4 | 
[V:2] d4z4 | 
[V:3] B4A4 | 
[V:4] z4D,4 | 
[V:1] F4G4 | 
[V:2] z4c4 | 
[V:3] B4G4 | 
[V:4] D,4E,4 | 
[V:1] A4z2G2 | 
[V:2] d4e4 | 
[V:3] z4G4 | 
[V:4] D,4C,4 | 
[V:1] B4c4 | 
[V:2] d4z4 | 
[V:3] G4A4 | 
[V:4] z2G,4^F,2 | 
[V:1] B4A4- | 
[V:2] d4e4- | 
[V:3] G4c4- | 
[V:4] G,4z4 | 
[V:1] A4G4- | 
[V:2] e2d2d4- | 
[V:3] c4B4 | 
[V:4] z8 | 
[V:1] G4^F4 | 
[V:2] d4d4 | 
[V:3] A8 | 
[V:4] z4D,4 | 
[V:1] G4z4 | 
[V:2] z2e4d2- | 
[V:3] G8 | 
[V:4] B,,2C,4B,,2 | 
[V:1] G4A4 | 
[V:2] d2c4F2 | 
[V:3] z8 | 
[V:4] _E,4D,4 | 
[V:1] G3AB2c2- | 
[V:2] B2c2d2_e2 | 
[V:3] z8 | 
[V:4] z8 | 
[V:1] c2BAG4 | 
[V:2] c2f4e2 | 
[V:3] z8 | 
[V:4] z8 | 
[V:1] F8 | 
[V:2] f4z4 | 
[V:3] A6G2 | 
[V:4] D,8 | 
[V:1] z8 | 
[V:2] z8 | 
[V:3] A4B4 | 
[V:4] D,6E,2 | 
[V:1] z8 | 
[V:2] z8 | 
[V:3] A4B4 | 
[V:4] F,4D,4 | 
[V:1] z8 | 
[V:2] z8 | 
[V:3] c6BA | 
[V:4] E,8- | 
[V:1] z8 | 
[V:2] z8 | 
[V:3] G8 | 
[V:4] E,8 | 
[V:1] z12 | 
[V:2] [M:3/1]A8A4 | 
[V:3] F12 | 
[V:4] D,12 | 
[V:1] [M:3/1]F6G2A4 | 
[V:2] B4A2B2c4 | 
[V:3] z12 | 
[V:4] z12 | 
[V:1] B8A4 | 
[V:2] G4d8 | 
[V:3] z12 | 
[V:4] z12 | 
[V:1] G8F4 | 
[V:2] B4A8 | 
[V:3] z12 | 
[V:4] z12 | 
[V:1] G8F4 | 
[V:2] G2A2B2c2d4 | 
[V:3] z12 | 
[V:4] z12 | 
[V:1] G4A8 | 
[V:2] e4f8 | 
[V:3] z12 | 
[V:4] z12 | 
[V:1] G8z4 | 
[V:2] g8G4- | 
[V:3] z12 | 
[V:4] z12 | 
[V:1] D8C4 | 
[V:2] G4B4A4 | 
[V:3] z12 | 
[V:4] z12 | 
[V:1] D6E2F4 | 
[V:2] B4G4A4 | 
[V:3] z12 | 
[V:4] z12 | 
[V:1] G6F2E4 | 
[V:2] B4c8 | 
[V:3] z12 | 
[V:4] z12 | 
[V:1] D4E8 | 
[V:2] d6^c2^c2=B2 | 
[V:3] z12 | 
[V:4] z12 | 
[V:1] D4D4z4 | 
[V:2] d8G4- | 
[V:3] z12 | 
[V:4] z12 | 
[V:1] G8F4- | 
[V:2] G4B8 | 
[V:3] z12 | 
[V:4] z12 | 
[V:1] F4G8 | 
[V:2] A4B4c4- | 
[V:3] z12 | 
[V:4] z12 | 
[V:1] A4B4c4- | 
[V:2] c4d4c4 | 
[V:3] z12 | 
[V:4] z12 | 
[V:1] c4B4A4 | 
[V:2] _e8c4 | 
[V:3] z12 | 
[V:4] z12 | 
[V:1] B4c8 | 
[V:2] d4_e6d2 | 
[V:3] z12 | 
[V:4] z12 | 
[V:1] B8A4 | 
[V:2] B4c8 | 
[V:3] z12 | 
[V:4] z12 | 
[V:1] !fermata!B8z4 | 
[V:2] !fermata!B8z4 | 
[V:3] z12 | 
[V:4] z12 | 
[V:1] [M:2/1]G8 | 
[V:2] [M:2/1]_e8 | 
[V:3] B8 | 
[V:4] _E,8 | 
[V:1] G8 | 
[V:2] d8- | 
[V:3] B8 | 
[V:4] G,8 | 
[V:1] F8 | 
[V:2] d8 | 
[V:3] A8 | 
[V:4] D,8 | 
[V:1] G8- | 
[V:2] d8 | 
[V:3] B8 | 
[V:4] G,8 | 
[V:1] G4G4 | 
[V:2] _e8 | 
[V:3] c8 | 
[V:4] C,8 | 
[V:1] G8 | 
[V:2] _e8 | 
[V:3] B6A2 | 
[V:4] _E,8- | 
[V:1] C4D4 | 
[V:2] z4B4 | 
[V:3] G4F4 | 
[V:4] E,4D,4 | 
[V:1] _E8 | 
[V:2] c8 | 
[V:3] G6A2 | 
[V:4] C,8 | 
[V:1] !fermata!D8- | 
[V:2] !fermata!F8- | 
[V:3] !fermata!B8- | 
[V:4] !fermata!B,,8- | 
[V:1] D8 | 
[V:2] F8 | 
[V:3] B8 | 
[V:4] B,,8 | 
[V:1] F8 | 
[V:2] z8 | 
[V:3] B8 | 
[V:4] B,,8 | 
[V:1] G8 | 
[V:2] z8 | 
[V:3] B8 | 
[V:4] _E,8 | 
[V:1] C4F4- | 
[V:2] z8 | 
[V:3] A8 | 
[V:4] F,6E,2 | 
[V:1] F4E4 | 
[V:2] z8 | 
[V:3] B4c4- | 
[V:4] D,4C,4 | 
[V:1] D8 | 
[V:2] z8 | 
[V:3] c4=B4 | 
[V:4] G,8 | 
[V:1] G4A4 | 
[V:2] z8 | 
[V:3] c6A2 | 
[V:4] C,4F,4 | 
[V:1] B4c4- | 
[V:2] z8 | 
[V:3] d4c4 | 
[V:4] G,4A,4 | 
[V:1] c2=BA=B4 | 
[V:2] z4G4 | 
[V:3] d8 | 
[V:4] G,8 | 
[V:1] c4z4 | 
[V:2] A8 | 
[V:3] c8 | 
[V:4] z8 | 
[V:1] G8 | 
[V:2] B4c4 | 
[V:3] z8 | 
[V:4] _E,8 | 
[V:1] F8 | 
[V:2] d8 | 
[V:3] z8 | 
[V:4] D,8 | 
[V:1] c8 | 
[V:2] _e8 | 
[V:3] G8- | 
[V:4] C,8 | 
[V:1] B8 | 
[V:2] d8 | 
[V:3] G8 | 
[V:4] G,,8 | 
[V:1] A8 | 
[V:2] z4d4 | 
[V:3] F8 | 
[V:4] D,8 | 
[V:1] D4E4 | 
[V:2] B4c4 | 
[V:3] G8 | 
[V:4] z4C,4 | 
[V:1] F4G4 | 
[V:2] d4_e4 | 
[V:3] A4B4 | 
[V:4] F,4_E,2G,2 | 
[V:1] A4G4- | 
[V:2] f4_e4 | 
[V:3] c8 | 
[V:4] F,4C,4 | 
[V:1] G2^F2F2E2 | 
[V:2] d8 | 
[V:3] A8 | 
[V:4] D,8 | 
[V:1] G8 ||  
[V:2] d8 ||  
[V:3] G8 ||  
[V:4] G,,8 ||  
[V:1] [M:2/1]D6E2 | 
[V:2] [M:2/1]G8 | 
[V:3] [M:2/1]B8 | 
[V:4] [M:2/1]G,8 | 
[V:1] F8- | 
[V:2] A8 | 
[V:3] c8 | 
[V:4] F,8 | 
[V:1] F8 | 
[V:2] B4A2B2 | 
[V:3] d8 | 
[V:4] B,,4D,4 | 
[V:1] G8 | 
[V:2] c8 | 
[V:3] _e8 | 
[V:4] C,8 | 
[V:1] F8 | 
[V:2] A4B4- | 
[V:3] d4d4 | 
[V:4] D,4B,,4 | 
[V:1] G8 | 
[V:2] B4G4 | 
[V:3] c8 | 
[V:4] _E,8 | 
[V:1] A8 | 
[V:2] F4A4 | 
[V:3] d4d4- | 
[V:4] D,4F,4 | 
[V:1] G8 | 
[V:2] B4G4 | 
[V:3] d2cBc4 | 
[V:4] _E,8 | 
[V:1] F8 | 
[V:2] A8 | 
[V:3] d8 | 
[V:4] D,8 | 
[V:1] E4D4 | 
[V:2] c4d4 | 
[V:3] G8 | 
[V:4] C,4B,,4 | 
[V:1] E4C4 | 
[V:2] c4G4 | 
[V:3] G8 | 
[V:4] C,4_E,4 | 
[V:1] D3CA,4 | 
[V:2] A4z4 | 
[V:3] F8 | 
[V:4] D,8 | 
[V:1] G,2B,2C2D2- | 
[V:2] G4A2G2- | 
[V:3] B4A2B2- | 
[V:4] z8 | 
[V:1] D2F2E4 | 
[V:2] GFD2A4 | 
[V:3] B2d4^c2 | 
[V:4] z8 | 
[V:1] D4z4 | 
[V:2] F4G4 | 
[V:3] d8- | 
[V:4] D,4G,,4 | 
[V:1] F4G4 | 
[V:2] A4B4 | 
[V:3] d8 | 
[V:4] D,4G,,4 | 
[V:1] A4B4 | 
[V:2] A4z4 | 
[V:3] d8 | 
[V:4] D,4G,4 | 
[V:1] c6BA | 
[V:2] F4c4 | 
[V:3] c8 | 
[V:4] A,4F,4 | 
[V:1] G4F4 | 
[V:2] d8- | 
[V:3] B4A4 | 
[V:4] z2G,2D,4 | 
[V:1] z2G2A2B2- | 
[V:2] d8- | 
[V:3] B4A2G2 | 
[V:4] G,4F,2G,2- | 
[V:1] B2G4F2 | 
[V:2] d8 | 
[V:3] B4A4 | 
[V:4] G,2G,2D,4 | 
[V:1] B4A4 | 
[V:2] d4f4 | 
[V:3] G4c4 | 
[V:4] z4F,4 | 
[V:1] D3EFGA2 | 
[V:2] z2d4c2 | 
[V:3] B4A4 | 
[V:4] G,4D,2F,2 | 
[V:1] B2A4c2- | 
[V:2] B2f4g2- | 
[V:3] d4c2e2- | 
[V:4] G,2F,4C,2- | 
[V:1] cBAG^F4 | 
[V:2] g2e2d4 | 
[V:3] edcBA4 | 
[V:4] C,4D,4 | 
[V:1] G4z4 | 
[V:2] z8 | 
[V:3] G4G4 | 
[V:4] G,,3A,,B,,2C,2 | 
[V:1] z8 | 
[V:2] z8 | 
[V:3] F4B4 | 
[V:4] A,,2B,,3C,D,E, | 
[V:1] z8 | 
[V:2] z4c4 | 
[V:3] A2G2A4 | 
[V:4] F,2G,4^F,2 | 
[V:1] z4G4 | 
[V:2] B4_e4 | 
[V:3] G4z4 | 
[V:4] G,4z4 | 
[V:1] F4B4 | 
[V:2] d2B3cde | 
[V:3] z8 | 
[V:4] z8 | 
[V:1] A2G2A4 | 
[V:2] f2g4^f2 | 
[V:3] z4d4 | 
[V:4] z8 | 
[V:1] G4z4 | 
[V:2] g4z4 | 
[V:3] _e4d4 | 
[V:4] C,4B,,4 | 
[V:1] z8 | 
[V:2] z8 | 
[V:3] B4c4 | 
[V:4] _E,8 | 
[V:1] z8 | 
[V:2] z8 | 
[V:3] F3GA2B2- | 
[V:4] D,4C,2D,2- | 
[V:1] z8 | 
[V:2] z8 | 
[V:3] Bcd4G2- | 
[V:4] D,2G,,2B,,2C,2 | 
[V:1] z8 | 
[V:2] z8 | 
[V:3] G2^F2G4 | 
[V:4] A,,4G,,4 | 
[V:1] E8 | 
[V:2] G4c4 | 
[V:3] z4G4 | 
[V:4] C,8 | 
[V:1] F4G4 | 
[V:2] d4G4 | 
[V:3] B4G4 | 
[V:4] B,,4_E,4 | 
[V:1] F4E4 | 
[V:2] z8 | 
[V:3] A4A4- | 
[V:4] D,4C,4 | 
[V:1] D8 | 
[V:2] F4D4 | 
[V:3] A2GFG4 | 
[V:4] B,,8 | 
[V:1] C8 | 
[V:2] E8- | 
[V:3] A8 | 
[V:4] A,,6B,,2 | 
[V:1] z8 | 
[V:2] E4A4- | 
[V:3] G4F4 | 
[V:4] C,4D,4 | 
[V:1] z8 | 
[V:2] A2F2c4 | 
[V:3] A4G4 | 
[V:4] C,2D,2E,4 | 
[V:1] z8 | 
[V:2] z2d3ef2- | 
[V:3] A4B2c2- | 
[V:4] D,2F,2G,2A,2- | 
[V:1] z8 | 
[V:2] f2d4^c2 | 
[V:3] c2BAG4 | 
[V:4] A,2G,F,E,4 | 
[V:1] [M:3/1]A8A4 | 
[V:2] [M:3/1]d12 | 
[V:3] [M:3/1]F4z4z4 | 
[V:4] [M:3/1]D,8D,4 | 
[V:1] A6B2c4 | 
[V:2] z12 | 
[V:3] F8F4 | 
[V:4] D,6C,2A,,4 | 
[V:1] B4A8 | 
[V:2] d8d4 | 
[V:3] G4F4B4- | 
[V:4] G,,4D,8 | 
[V:1] G6^F2F2E2 | 
[V:2] d4d8 | 
[V:3] B4A8 | 
[V:4] G,,4D,8 | 
[V:1] G6F2E2D2 | 
[V:2] B8c4- | 
[V:3] G8G4 | 
[V:4] G,,8C,4- | 
[V:1] E4D8 | 
[V:2] c4B4G4 | 
[V:3] G4B6G2 | 
[V:4] C,4G,,8 | 
[V:1] B,4A,8 | 
[V:2] d8d4 | 
[V:3] G8^F4 | 
[V:4] G,,4D,8 | 
[V:1] B,4D4_E4 | 
[V:2] d8c4- | 
[V:3] G12- | 
[V:4] G,,4B,,4C,4 | 
[V:1] C4D4F4 | 
[V:2] c4B8 | 
[V:3] G4F8 | 
[V:4] _E,4D,8 | 
[V:1] E4D4G4- | 
[V:2] c4d4_e4- | 
[V:3] G4B4c4 | 
[V:4] C,4B,,4_E,4- | 
[V:1] G4A8 | 
[V:2] e4c8 | 
[V:3] B4A4c4 | 
[V:4] E,4F,8 | 
[V:1] B4c6B2 | 
[V:2] f4g8 | 
[V:3] d4_e8 | 
[V:4] D,4C,8 | 
[V:1] B8A4 | 
[V:2] f4g4f4 | 
[V:3] d4c8 | 
[V:4] D,4E,4F,4 | 
[V:1] B12 | 
[V:2] d8z4 | 
[V:3] B8B4- | 
[V:4] B,,12 | 
[V:1] z12 | 
[V:2] G8E4 | 
[V:3] B4c8 | 
[V:4] _E,8C,4 | 
[V:1] z12 | 
[V:2] F4E8 | 
[V:3] B4c2B2A2G2 | 
[V:4] D,4A,,4C,4 | 
[V:1] z12 | 
[V:2] D4z4z4 | 
[V:3] G8^F4 | 
[V:4] B,,4A,,8 | 
[V:1] B8B4 | 
[V:2] d12 | 
[V:3] G8z4 | 
[V:4] G,,8G,4 | 
[V:1] A8B4 | 
[V:2] f8d4 | 
[V:3] F8G4 | 
[V:4] D,8B,,4 | 
[V:1] c8B4 | 
[V:2] c4f4d4- | 
[V:3] A8G4 | 
[V:4] F,8G,4 | 
[V:1] A4G8 | 
[V:2] d4B4c4 | 
[V:3] F4G8 | 
[V:4] D,4_E,8 | 
[V:1] !fermata!F12 | 
[V:2] !fermata!d12 | 
[V:3] !fermata!A12 | 
[V:4] !fermata!D,12 | 
[V:1] z12 | 
[V:2] z12 | 
[V:3] z12 | 
[V:4] z12 | 
[V:1] [M:2/1]E8G8 [I:setbarnb 206]| 
[V:2] [M:2/1]G16 | 
[V:3] [M:2/1]c8B8 | 
[V:4] [M:2/1]C,8G,,8 | 
[V:1] E8D8 [I:setbarnb 208]| 
[V:2] C8F8 | 
[V:3] c8B8 | 
[V:4] A,,8B,,8 | 
[V:1] E8F8 [I:setbarnb 210]| 
[V:2] E4G4F8 | 
[V:3] G8A8 | 
[V:4] C,4E,4D,8 | 
[V:1] D8A8- [I:setbarnb 212]| 
[V:2] z8F8- | 
[V:3] B8d8 | 
[V:4] G,8D,8 | 
[V:1] A4G4F4G4- [I:setbarnb 214]| 
[V:2] F4G4A4G4 | 
[V:3] c8d4B4 | 
[V:4] F,4E,4D,4G,4 | 
[V:1] G4^F4G8 [I:setbarnb 216]| 
[V:2] d8B4c4 | 
[V:3] A8G8 | 
[V:4] D,8_E,4C,4 | 
[V:1] B8A8 [I:setbarnb 218]| 
[V:2] d8d8- | 
[V:3] z4G8F4 | 
[V:4] G,8D,8 | 
[V:1] z4D8F4 [I:setbarnb 220]| 
[V:2] d8A8 | 
[V:3] B8z4A4- | 
[V:4] G,8F,4D,4 | 
[V:1] E4D4G8 [I:setbarnb 222]| 
[V:2] z8z8 | 
[V:3] A4B8c4 | 
[V:4] C,4D,4_E,4C,4 | 
[V:1] z4F8A4 [I:setbarnb 224]| 
[V:2] z8z8 | 
[V:3] A8z4c4- | 
[V:4] D,8F,8 | 
[V:1] G4F4B8 [I:setbarnb 226]| 
[V:2] z8d8 | 
[V:3] c4d8B4 | 
[V:4] E,4D,4G,8 | 
[V:1] z4A8c4 [I:setbarnb 228]| 
[V:2] f8e4f4 | 
[V:3] c8z8 | 
[V:4] F,8A,8 | 
[V:1] B4A4d8 [I:setbarnb 230]| 
[V:2] g4a4g8- | 
[V:3] d8B8 | 
[V:4] G,4F,4G,8 | 
[V:1] c6B2A2G2B4- [I:setbarnb 232]| 
[V:2] g8e4d4 | 
[V:3] _e8c4d4- | 
[V:4] C,8z4G,,4- | 
[V:1] B4A2G2F4A4- [I:setbarnb 234]| 
[V:2] B2c2d2e2f4e4 | 
[V:3] d4c2B2A4c4- | 
[V:4] G,,2A,,2B,,2C,2D,4C,4 | 
[V:1] A2G2G6^F2F2E2 [I:setbarnb 236]| 
[V:2] f4d12 | 
[V:3] c4B4A8 | 
[V:4] F,4G,4D,8 | 
[V:1] G16 |]  
[V:2] B8d8 |]  
[V:3] G16 |]  
[V:4] G,,16 |]  



